X: 576
T:Fl\oytel\aat
C:Geirr Tveitt
O:Norway
M:3/4
L:1/4
Q:1/4=132
N:Posted to the woodenflute mailing list September 2002
Z:Frank Nordberg
K:Ddor
ffe|ffd|e2^c|d3-|d2z|
ffe|ffd|c2B|c3-|cza|
c'bc'|a2f|g2a|a3-|a2z|]

